icons/svg/seamark/obstruction_stump.svg

<?xml version="1.0" encoding="UTF-8" standalone="no"?>
<!-- Created with Inkscape (http://www.inkscape.org/) -->

<svg
   xmlns:dc="http://purl.org/dc/elements/1.1/"
   xmlns:cc="http://creativecommons.org/ns#"
   xmlns:rdf="http://www.w3.org/1999/02/22-rdf-syntax-ns#"
   xmlns:svg="http://www.w3.org/2000/svg"
   xmlns="http://www.w3.org/2000/svg"
   xmlns:sodipodi="http://sodipodi.sourceforge.net/DTD/sodipodi-0.dtd"
   xmlns:inkscape="http://www.inkscape.org/namespaces/inkscape"
   version="1.0"
   width="580"
   height="580"
   id="svg2"
   sodipodi:version="0.32"
   inkscape:version="0.92.3 (2405546, 2018-03-11)"
   sodipodi:docname="obstruction_stump.svg"
   inkscape:output_extension="org.inkscape.output.svg.inkscape">
  <metadata
     id="metadata2975">
    <rdf:RDF>
      <cc:Work
         rdf:about="">
        <dc:format>image/svg+xml</dc:format>
        <dc:type
           rdf:resource="http://purl.org/dc/dcmitype/StillImage" />
        <cc:license
           rdf:resource="http://web.resource.org/cc/PublicDomain" />
        <dc:language>en</dc:language>
        <dc:title />
      </cc:Work>
    </rdf:RDF>
  </metadata>
  <sodipodi:namedview
     inkscape:window-height="1006"
     inkscape:window-width="1920"
     inkscape:pageshadow="2"
     inkscape:pageopacity="0.0"
     guidetolerance="10.0"
     gridtolerance="10.0"
     objecttolerance="10.0"
     borderopacity="1.0"
     bordercolor="#666666"
     pagecolor="#ffffff"
     id="base"
     inkscape:zoom="0.65172414"
     inkscape:cx="1.5175025"
     inkscape:cy="353.94584"
     inkscape:window-x="1920"
     inkscape:window-y="0"
     inkscape:current-layer="svg2"
     showgrid="false"
     inkscape:window-maximized="1" />
  <defs
     id="defs4">
    <inkscape:perspective
       sodipodi:type="inkscape:persp3d"
       inkscape:vp_x="0 : 290 : 1"
       inkscape:vp_y="0 : 1000 : 0"
       inkscape:vp_z="580 : 290 : 1"
       inkscape:persp3d-origin="290 : 193.33333 : 1"
       id="perspective10" />
  </defs>
  <path
     sodipodi:type="inkscape:offset"
     inkscape:radius="26.129745"
     inkscape:original="M 351.30078 80.019531 C 349.277 80.019531 347.25989 80.997081 345.66992 82.75 C 333.36167 96.329029 313.24443 101.78906 300.9043 101.78906 C 288.56414 101.78906 268.42258 96.332736 256.10352 82.75 C 254.43416 80.913282 252.29387 79.932901 250.17188 80.033203 C 248.24983 80.119743 246.35391 81.086608 244.8418 82.75 C 232.53365 96.328995 212.45158 101.78906 200.11133 101.78906 C 192.14315 101.78906 180.92793 99.508343 170.66797 94.240234 C 167.19006 100.28979 165.79236 104.74915 166.35938 112.36523 C 166.35939 112.37323 166.35938 112.38273 166.35938 112.39062 C 166.55818 115.09355 166.93019 117.58461 167.41992 119.91406 C 179.10233 125.40366 190.86668 127.24609 200.11133 127.24609 C 214.14094 127.24609 233.934 122.96771 250.49023 108.20703 C 267.05608 122.98104 286.86857 127.24609 300.9043 127.24609 C 314.93383 127.24609 334.72694 122.96768 351.2832 108.20703 C 367.84903 122.98104 387.66156 127.24609 401.69727 127.24609 C 413.75393 127.24609 430.08245 124.08827 444.94531 113.83203 C 445.09664 112.25475 445.16739 110.61208 445.19141 108.88086 C 445.3121 100.70932 443.36475 96.164769 438.9082 89.505859 C 426.96111 98.175722 411.74262 101.78906 401.69727 101.78906 C 389.35713 101.78906 369.25071 96.332736 356.93164 82.75 C 355.34166 80.997081 353.32457 80.019531 351.30078 80.019531 z M 341.20312 158.99023 L 293.92188 372.03906 C 292.62318 371.95706 291.31839 371.90039 290 371.90039 C 255.83336 371.90039 227.86523 399.86852 227.86523 434.03516 C 227.86523 468.20179 255.83336 496.16992 290 496.16992 C 324.16664 496.16992 352.13477 468.20179 352.13477 434.03516 C 352.13477 410.05092 338.34399 389.13587 318.31055 378.79102 L 365.87695 164.46484 L 341.20312 158.99023 z M 290 397.17383 C 310.50782 397.17383 326.86133 413.52733 326.86133 434.03516 C 326.86133 454.54298 310.50782 470.89648 290 470.89648 C 269.49218 470.89648 253.13867 454.54298 253.13867 434.03516 C 253.13867 413.52733 269.49218 397.17383 290 397.17383 z "
     style="color:#000000;font-style:normal;font-variant:normal;font-weight:normal;font-stretch:normal;font-size:medium;line-height:normal;font-family:sans-serif;font-variant-ligatures:normal;font-variant-position:normal;font-variant-caps:normal;font-variant-numeric:normal;font-variant-alternates:normal;font-feature-settings:normal;text-indent:0;text-align:start;text-decoration:none;text-decoration-line:none;text-decoration-style:solid;text-decoration-color:#000000;letter-spacing:normal;word-spacing:normal;text-transform:none;writing-mode:lr-tb;direction:ltr;text-orientation:mixed;dominant-baseline:auto;baseline-shift:baseline;text-anchor:start;white-space:normal;shape-padding:0;clip-rule:nonzero;display:inline;overflow:visible;visibility:visible;opacity:0.42608696;isolation:auto;mix-blend-mode:normal;color-interpolation:sRGB;color-interpolation-filters:linearRGB;solid-color:#000000;solid-opacity:1;vector-effect:none;fill:#acd8f3;fill-opacity:1;fill-rule:nonzero;stroke:#a35151;stroke-width:0;stroke-linecap:round;stroke-linejoin:miter;stroke-miterlimit:4;stroke-dasharray:none;stroke-dashoffset:0;stroke-opacity:1;marker:none;color-rendering:auto;image-rendering:auto;shape-rendering:auto;text-rendering:auto;enable-background:accumulate;font-variant-east_asian:normal"
     id="path2993-36"
     d="m 351.30078,53.890625 c -10.43811,0 -19.25372,4.986724 -24.98437,11.304687 a 26.132358,26.132358 0 0 0 -0.006,0.0059 c -5.13427,5.664361 -20.77373,10.458984 -25.40625,10.458984 -4.63781,0 -20.30842,-4.801007 -25.44532,-10.464844 a 26.132358,26.132358 0 0 0 -0.0195,-0.01953 c -6.02565,-6.629745 -15.50763,-11.747769 -26.46093,-11.24414 -9.87879,0.450278 -18.03939,5.267485 -23.47071,11.242187 a 26.132358,26.132358 0 0 0 -0.0254,0.02734 c -5.15077,5.6826 -20.73842,10.458984 -25.37109,10.458984 -2.98214,0 -11.40482,-1.530399 -17.50781,-4.664062 a 26.132358,26.132358 0 0 0 -34.5879,10.220703 c -4.73563,8.237268 -8.57397,21.548233 -7.71484,33.087893 a 26.132358,26.132358 0 0 0 0,0.002 c 0.28757,3.90986 0.83559,7.58983 1.54883,10.98242 a 26.132358,26.132358 0 0 0 14.45703,18.27344 c 15.75675,7.40414 31.08832,9.8125 43.80469,9.8125 14.48766,0 32.72307,-3.19459 50.3789,-13.19141 17.67671,10.00718 35.93211,13.19141 50.41407,13.19141 4.67765,0 9.75901,-0.35352 15.07226,-1.14062 a 26.132358,26.132358 0 0 0 -0.2832,1.09374 l -43.09961,194.20313 c -40.20717,8.17634 -70.85742,44.03072 -70.85742,86.50391 0,48.42616 39.8375,88.26367 88.26367,88.26367 48.42617,0 88.26367,-39.83751 88.26367,-88.26367 0,-26.51184 -11.95976,-50.34252 -30.67383,-66.56641 l 43.79688,-197.3418 a 26.132358,26.132358 0 0 0 -2.2793,-17.60742 c 4.39931,0.54157 8.65944,0.85547 12.58985,0.85547 16.61917,0 37.92543,-4.12384 58.08789,-18.03711 a 26.132358,26.132358 0 0 0 11.16992,-19.00977 c 0.24157,-2.51786 0.33237,-4.85899 0.36328,-7.06835 0.1818,-12.462404 -5.1404,-25.987042 -10.69531,-34.287114 a 26.132358,26.132358 0 0 0 -37.0625,-6.615234 c -6.20323,4.501606 -18.08389,7.302734 -21.86328,7.302734 -4.63778,0 -20.25664,-4.78268 -25.41016,-10.464844 a 26.132358,26.132358 0 0 0 -0.002,0 C 370.55459,58.877491 361.73886,53.890625 351.30078,53.890625 Z M 290,423.30273 c 6.61677,0 10.73242,4.11565 10.73242,10.73243 0,6.61676 -4.11565,10.73242 -10.73242,10.73242 -6.61677,0 -10.73242,-4.11566 -10.73242,-10.73242 0,-6.61678 4.11565,-10.73243 10.73242,-10.73243 z" />
  <circle
     r="49.498432"
     cy="434.03549"
     cx="290"
     style="color:#000000;display:inline;overflow:visible;visibility:visible;fill:#fefefe;fill-opacity:1;fill-rule:nonzero;stroke:#b01d1d;stroke-width:25.27349854;stroke-linecap:butt;stroke-linejoin:miter;stroke-miterlimit:4;stroke-dasharray:none;stroke-dashoffset:0;stroke-opacity:1;marker:none;enable-background:accumulate"
     id="path2993" />
  <path
     style="fill:none;fill-rule:evenodd;stroke:#b01d1d;stroke-width:25.27349854;stroke-linecap:butt;stroke-linejoin:miter;stroke-miterlimit:4;stroke-dasharray:none;stroke-opacity:1"
     d="M 303.8652,385.55667 353.54016,161.72715"
     id="path848"
     inkscape:connector-curvature="0"
     sodipodi:nodetypes="cc" />
  <path
     style="color:#000000;font-style:normal;font-variant:normal;font-weight:normal;font-stretch:normal;font-size:medium;line-height:normal;font-family:Sans;-inkscape-font-specification:Sans;text-indent:0;text-align:start;text-decoration:none;text-decoration-line:none;letter-spacing:normal;word-spacing:normal;text-transform:none;writing-mode:lr-tb;direction:ltr;baseline-shift:baseline;text-anchor:start;display:inline;overflow:visible;visibility:visible;fill:#b01d1d;fill-opacity:1;stroke:none;stroke-width:29.65579796;stroke-miterlimit:4;stroke-dasharray:none;marker:none;enable-background:accumulate"
     d="m 250.17186,80.033773 c -1.92203,0.08654 -3.8188,1.053012 -5.33091,2.716404 -12.30815,13.578995 -32.38999,19.038763 -44.73024,19.038763 -7.96818,0 -19.18361,-2.280092 -29.44357,-7.548201 -3.47791,6.049561 -4.87411,10.509221 -4.3071,18.125301 1e-5,0.008 1e-5,0.0161 0,0.024 0.1988,2.70291 0.5694,5.19471 1.05913,7.52416 11.68241,5.4896 23.44689,7.33186 32.69154,7.33186 14.02961,0 33.82267,-4.2781 50.3789,-19.03878 16.56585,14.77401 36.37845,19.03878 50.41418,19.03878 14.02953,0 33.82263,-4.27813 50.37889,-19.03878 16.56583,14.77401 36.37848,19.03878 50.41419,19.03878 12.05666,0 28.38461,-3.15745 43.24747,-13.41369 0.15133,-1.57728 0.2231,-3.22077 0.24712,-4.95199 0.12069,-8.17154 -1.82757,-12.716422 -6.28412,-19.375332 -11.94709,8.669863 -27.16512,12.283862 -37.21047,12.283862 -12.34014,0 -32.44646,-5.456041 -44.76553,-19.038777 -1.58998,-1.752919 -3.60723,-2.731417 -5.63102,-2.731417 -2.02378,0 -4.04102,0.978498 -5.63099,2.731417 -12.30825,13.579029 -32.42541,19.038777 -44.76554,19.038777 -12.34016,0 -32.48179,-5.456041 -44.80085,-19.038777 -1.66936,-1.836718 -3.80908,-2.816689 -5.93108,-2.716387 z"
     id="path3-9-5"
     inkscape:connector-curvature="0"
     sodipodi:nodetypes="ccsccccscscscccscscscc" />
</svg>

<svg width="580" height="580" viewBox="0 0 580 580" fill="none" xmlns="http://www.w3.org/2000/svg">
<path opacity="0.426087" d="M351.301 53.8906C340.863 53.8906 332.047 58.8773 326.316 65.1953C326.314 65.1973 326.312 65.1992 326.31 65.2012C321.176 70.8656 305.537 75.6602 300.904 75.6602C296.266 75.6602 280.596 70.8592 275.459 65.1954C275.452 65.1888 275.446 65.1823 275.439 65.1758C269.414 58.5461 259.932 53.4281 248.978 53.9317C239.1 54.382 230.939 59.1992 225.508 65.1739C225.499 65.183 225.491 65.1921 225.482 65.2012C220.331 70.8838 204.744 75.6602 200.111 75.6602C197.129 75.6602 188.706 74.1298 182.603 70.9961C176.629 67.9293 169.704 67.2801 163.264 69.1831C156.823 71.0862 151.363 75.3954 148.015 81.2168C143.28 89.4541 139.441 102.765 140.301 114.305C140.301 114.305 140.301 114.306 140.301 114.307C140.588 118.217 141.136 121.897 141.849 125.289C142.681 129.246 144.42 132.956 146.929 136.126C149.437 139.297 152.647 141.843 156.306 143.563C172.063 150.967 187.395 153.375 200.111 153.375C214.599 153.375 232.834 150.18 250.49 140.184C268.167 150.191 286.422 153.375 300.904 153.375C305.582 153.375 310.663 153.022 315.976 152.234C315.874 152.597 315.78 152.962 315.693 153.328L272.594 347.531C232.386 355.708 201.736 391.562 201.736 434.035C201.736 482.461 241.574 522.299 290 522.299C338.426 522.299 378.264 482.461 378.264 434.035C378.264 407.523 366.304 383.693 347.59 367.469L391.387 170.127C392.705 164.172 391.899 157.943 389.107 152.52C393.507 153.061 397.767 153.375 401.697 153.375C418.316 153.375 439.623 149.251 459.785 135.338C462.92 133.175 465.544 130.353 467.473 127.069C469.402 123.785 470.591 120.119 470.955 116.328C471.196 113.81 471.287 111.469 471.318 109.26C471.5 96.7975 466.178 83.2728 460.623 74.9727C458.668 72.0519 456.143 69.5555 453.201 67.6328C450.259 65.7102 446.959 64.401 443.498 63.7834C440.038 63.1658 436.489 63.2525 433.063 64.0385C429.637 64.8244 426.405 66.2934 423.56 68.3575C417.357 72.8591 405.477 75.6602 401.697 75.6602C397.059 75.6602 381.44 70.8776 376.287 65.1954C376.286 65.1954 376.286 65.1954 376.285 65.1954C370.555 58.8775 361.739 53.8906 351.301 53.8906ZM290 423.303C296.617 423.303 300.732 427.418 300.732 434.035C300.732 440.652 296.617 444.768 290 444.768C283.383 444.768 279.268 440.652 279.268 434.035C279.268 427.418 283.383 423.303 290 423.303Z" fill="#ACD8F3"/>
<path d="M290 483.534C317.337 483.534 339.498 461.373 339.498 434.036C339.498 406.698 317.337 384.537 290 384.537C262.663 384.537 240.501 406.698 240.501 434.036C240.501 461.373 262.663 483.534 290 483.534Z" fill="#FEFEFE" stroke="#B01D1D" stroke-width="25.2735"/>
<path d="M303.865 385.557L353.54 161.728" stroke="#B01D1D" stroke-width="25.2735"/>
<path d="M250.172 80.0336C248.25 80.1202 246.353 81.0866 244.841 82.75C232.533 96.329 212.451 101.789 200.111 101.789C192.142 101.789 180.927 99.5087 170.667 94.2406C167.189 100.29 165.793 104.75 166.36 112.366C166.36 112.374 166.36 112.382 166.36 112.39C166.559 115.093 166.929 117.585 167.419 119.914C179.102 125.404 190.866 127.246 200.111 127.246C214.14 127.246 233.933 122.968 250.49 108.207C267.055 122.981 286.868 127.246 300.904 127.246C314.933 127.246 334.726 122.968 351.283 108.207C367.848 122.981 387.661 127.246 401.697 127.246C413.753 127.246 430.081 124.088 444.944 113.832C445.096 112.255 445.167 110.611 445.191 108.88C445.312 100.709 443.364 96.1638 438.907 89.5049C426.96 98.1748 411.742 101.789 401.697 101.789C389.357 101.789 369.25 96.3327 356.931 82.75C355.341 80.9971 353.324 80.0186 351.3 80.0186C349.277 80.0186 347.259 80.9971 345.669 82.75C333.361 96.329 313.244 101.789 300.904 101.789C288.564 101.789 268.422 96.3327 256.103 82.75C254.434 80.9133 252.294 79.9333 250.172 80.0336V80.0336Z" fill="#B01D1D"/>
</svg>
